public/alergenos/pescado.svg

<?xml version="1.0" encoding="UTF-8" standalone="no"?>
<!-- Created with Inkscape (http://www.inkscape.org/) -->

<svg
   xmlns:dc="http://purl.org/dc/elements/1.1/"
   xmlns:cc="http://creativecommons.org/ns#"
   xmlns:rdf="http://www.w3.org/1999/02/22-rdf-syntax-ns#"
   xmlns:svg="http://www.w3.org/2000/svg"
   xmlns="http://www.w3.org/2000/svg"
   xmlns:sodipodi="http://sodipodi.sourceforge.net/DTD/sodipodi-0.dtd"
   xmlns:inkscape="http://www.inkscape.org/namespaces/inkscape"
   width="262.20471"
   height="372.04724"
   id="svg4209"
   version="1.1"
   inkscape:version="0.48.5 r10040"
   sodipodi:docname="IconoAlergenoPescado-Fish.svg">
  <defs
     id="defs4211" />
  <sodipodi:namedview
     id="base"
     pagecolor="#ffffff"
     bordercolor="#666666"
     borderopacity="1.0"
     inkscape:pageopacity="0.0"
     inkscape:pageshadow="2"
     inkscape:zoom="0.32234025"
     inkscape:cx="487.44456"
     inkscape:cy="621.26637"
     inkscape:document-units="px"
     inkscape:current-layer="layer1"
     showgrid="false"
     inkscape:window-width="1280"
     inkscape:window-height="924"
     inkscape:window-x="0"
     inkscape:window-y="28"
     inkscape:window-maximized="1" />
  <metadata
     id="metadata4214">
    <rdf:RDF>
      <cc:Work
         rdf:about="">
        <dc:format>image/svg+xml</dc:format>
        <dc:type
           rdf:resource="http://purl.org/dc/dcmitype/StillImage" />
        <dc:title></dc:title>
      </cc:Work>
    </rdf:RDF>
  </metadata>
  <g
     inkscape:label="Capa 1"
     inkscape:groupmode="layer"
     id="layer1"
     transform="translate(0,-680.31494)">
    <g
       id="g5444"
       transform="matrix(5.5766335,0,0,5.5766335,-980.45196,-1140.5133)">
      <text
         sodipodi:linespacing="125%"
         id="text4033-9-3"
         y="384.89944"
         x="199.20805"
         style="font-size:15px;font-style:normal;font-weight:normal;text-align:center;line-height:125%;letter-spacing:0px;word-spacing:0px;text-anchor:middle;fill:#000000;fill-opacity:1;stroke:none;font-family:Sans"
         xml:space="preserve"><tspan
           style="font-size:5.5px"
           id="tspan4037-1-5"
           y="384.89944"
           x="199.20805"
           sodipodi:role="line">PESCADO</tspan></text>
      <g
         id="g5437">
        <path
           sodipodi:type="arc"
           style="fill:#28429d;fill-opacity:1;stroke:#28429d;stroke-width:3;stroke-linecap:round;stroke-linejoin:round;stroke-miterlimit:4;stroke-opacity:1;stroke-dasharray:none;stroke-dashoffset:0"
           id="path3230-2-8"
           sodipodi:cx="21.573027"
           sodipodi:cy="29.287827"
           sodipodi:rx="18.363815"
           sodipodi:ry="18.720394"
           d="m 39.936842,29.287827 c 0,10.338988 -8.22176,18.720394 -18.363815,18.720394 -10.142055,0 -18.3638157,-8.381406 -18.3638157,-18.720394 0,-10.338989 8.2217607,-18.720395 18.3638157,-18.720395 10.142055,0 18.363815,8.381406 18.363815,18.720395 z"
           transform="matrix(1.0403305,0,0,1.0205147,176.88046,325.52)" />
        <g
           id="g4152"
           transform="translate(44.875963,326.33619)">
          <path
             sodipodi:nodetypes="ccccccccccccccccccccccccccccccccccccccccccccccccccccccccccc"
             inkscape:connector-curvature="0"
             id="path4134"
             d="m 139.75943,30.792767 1.27542,-0.599439 -1.50277,-1.219339 c 0.20121,-0.330159 0.38623,-0.660318 0.66841,-0.990477 0.5709,-0.672173 1.03207,-1.351204 1.80892,-2.010506 0.62862,-0.494255 1.23194,-1.012943 1.99232,-1.358778 0.56946,-0.292191 1.19674,-0.526558 1.83621,-0.748736 0.91106,-0.246684 1.97772,-0.487383 3.25637,-0.719928 0.47647,-0.145645 0.99623,-0.239341 1.40955,-0.460758 l 0.78662,-0.991232 c 0.45602,-0.381486 0.87638,-0.771887 1.43835,-1.126887 0.49274,-0.220811 0.8187,-0.48451 1.77331,-0.586556 0.35295,-0.07033 0.69712,-0.01756 1.03595,0.109884 0.22115,0.112648 0.40906,0.249049 0.43423,0.501683 -0.0435,0.305655 -0.14551,0.611311 -0.33041,0.916966 l -0.86392,1.455022 c -0.0906,0.206983 -0.24801,0.34714 -0.26297,0.629749 0.74469,0.230751 1.48938,0.445351 2.23406,0.757072 0.70804,0.21417 1.26007,0.515006 1.84834,0.795713 0.69574,0.268269 1.14354,0.536539 1.63766,0.804808 0.79731,0.459999 1.44189,0.919998 2.11887,1.379997 l 0.81164,0.691138 c 0.36075,-0.520586 0.60859,-0.935283 1.4247,-1.563393 0.53681,-0.362888 1.03362,-0.739896 1.8006,-1.021547 0.61341,-0.14475 1.15694,-0.337544 1.98246,-0.336473 0.32041,0.01491 0.88636,0.02027 0.98972,0.261448 l -0.86846,0.701747 c -0.36629,0.297613 -0.73257,0.734239 -1.09885,1.13825 -0.41351,0.635554 -0.62186,1.06594 -0.76844,1.434563 -0.1031,0.390532 -0.24312,0.781063 -0.18491,1.171595 0.003,0.427986 0.31059,0.970284 0.52139,1.476242 l 1.09202,1.333768 1.30498,1.140528 c -0.22978,0.371096 -0.19668,0.269952 -0.79496,0.566851 -0.45823,0.125502 -0.91646,0.107749 -1.37469,0.05078 l -1.13674,-0.409225 c -0.43562,-0.31509 -0.95192,-0.610508 -1.21404,-0.938945 l -1.08671,-1.093539 -0.61157,-0.759339 c -0.23692,0.357494 -0.51966,0.688801 -0.85558,0.989718 -0.46982,0.401746 -0.96833,0.731723 -1.46563,1.064743 l -1.16932,0.604745 -1.2974,0.572156 c -0.98117,0.402489 -1.974,0.746627 -2.96916,1.079139 l -1.28147,0.375124 c -0.0232,0.265728 0.10831,0.454088 0.3107,0.607017 l 0.90409,0.653245 0.72827,0.642637 c -0.24022,0.200457 -0.58486,0.279099 -0.90485,0.386488 -0.28722,0.07493 -0.66886,0.03971 -1.03745,0.01971 -0.57938,-0.171147 -1.05525,-0.418195 -1.42244,-0.744944 l -0.59263,-0.555483 -0.55851,-0.731303 c -0.36451,-0.158727 -0.72902,-0.24914 -1.09354,-0.30919 l -2.29772,-0.270544 c -1.08436,-0.07756 -2.182,-0.234737 -3.30866,-0.566092 -0.85467,-0.328959 -1.67228,-0.732038 -2.42807,-1.258749 -0.61472,-0.529826 -1.1967,-1.052095 -1.62932,-1.539898 z"
             style="fill:#c3ead8;fill-opacity:1;stroke:#c3ead8;stroke-width:0.05;stroke-linecap:butt;stroke-linejoin:miter;stroke-miterlimit:4;stroke-opacity:1;stroke-dasharray:none" />
          <path
             transform="matrix(1.4073729,0,0,1.4073729,-62.997722,-14.841239)"
             d="m 149.31198,30.271761 c 0,0.4623 -0.37477,0.837068 -0.83707,0.837068 -0.4623,0 -0.83706,-0.374768 -0.83706,-0.837068 0,-0.4623 0.37476,-0.837068 0.83706,-0.837068 0.4623,0 0.83707,0.374768 0.83707,0.837068 z"
             sodipodi:ry="0.83706784"
             sodipodi:rx="0.83706784"
             sodipodi:cy="30.271761"
             sodipodi:cx="148.47491"
             id="path4140"
             style="fill:#28429d;fill-opacity:1;stroke:#28429d;stroke-width:0.05;stroke-linecap:butt;stroke-linejoin:miter;stroke-miterlimit:4;stroke-opacity:1;stroke-dasharray:none"
             sodipodi:type="arc" />
          <path
             sodipodi:nodetypes="cccccccccccccccccccccccccccc"
             inkscape:connector-curvature="0"
             id="path4142"
             d="m 148.19466,34.658821 0.68639,-0.611604 0.84422,-1.04983 0.60178,-1.177394 c 0.16887,-0.357391 0.32071,-0.788647 0.37693,-1.230524 l 0.10345,-1.001212 c -0.006,-0.436998 -0.0119,-0.873585 -0.10099,-1.365857 -0.0824,-0.508593 -0.20901,-1.031936 -0.41863,-1.582941 l -0.5887,-1.242805 -0.70644,-1.085818 -0.20931,-0.340137 0.50409,0.437425 0.81641,0.847484 0.38715,0.517171 0.55556,0.997502 0.28781,0.811093 0.18315,0.627944 0.10466,0.588697 0.0262,0.798012 -0.0523,0.771847 -0.18315,0.798011 -0.21302,0.694156 -0.40184,0.653306 -0.34013,0.457876 -0.46159,0.511057 -0.72683,0.553109 -0.73466,0.49261 z"
             style="fill:#28429d;fill-opacity:1;stroke:#28429d;stroke-width:0.05;stroke-linecap:butt;stroke-linejoin:miter;stroke-miterlimit:4;stroke-opacity:1;stroke-dasharray:none" />
        </g>
      </g>
    </g>
  </g>
</svg>

<svg xmlns="http://www.w3.org/2000/svg" xmlns:xlink="http://www.w3.org/1999/xlink" width="80" zoomAndPan="magnify" viewBox="0 0 60 67.92" height="80" preserveAspectRatio="xMidYMid meet" version="1.0"><path stroke-linecap="round" transform="matrix(1.325997, 0, 0, 1.304315, 1.394203, -7.925917)" fill-opacity="1" fill="#28429d" fill-rule="nonzero" stroke-linejoin="round" d="M 39.937773 29.286905 C 39.937773 39.628179 31.715774 48.007816 21.573051 48.007816 C 11.430328 48.007816 3.208329 39.628179 3.208329 29.286905 C 3.208329 18.948625 11.430328 10.565994 21.573051 10.565994 C 31.715774 10.565994 39.937773 18.948625 39.937773 29.286905 Z M 39.937773 29.286905 " stroke="#28429d" stroke-width="3" stroke-opacity="1" stroke-miterlimit="4"/><path stroke-linecap="butt" transform="matrix(1.274592, 0, 0, 1.278095, -166.857664, -6.882746)" fill-opacity="1" fill="#c3ead8" fill-rule="nonzero" stroke-linejoin="miter" d="M 139.758464 30.792225 L 141.033382 30.19319 L 139.531676 28.973724 C 139.733946 28.643643 139.917829 28.313562 140.199782 27.983481 C 140.772882 27.311093 141.232588 26.632594 142.007959 25.972432 C 142.639288 25.47731 143.239971 24.960795 144.003083 24.615432 C 144.570053 24.322027 145.198318 24.086691 145.838842 23.866637 C 146.749059 23.619076 147.815577 23.377628 149.09356 23.145349 C 149.571654 22.998646 150.089589 22.906957 150.503325 22.683847 L 151.290954 21.693604 C 151.747596 21.311566 152.16746 20.920359 152.728302 20.565827 C 153.221719 20.345773 153.546578 20.082931 154.502767 19.979017 C 154.855208 19.908722 155.198455 19.963735 155.538637 20.089044 C 155.759296 20.202127 155.946243 20.339661 155.973826 20.590278 C 155.927855 20.895908 155.82672 21.201539 155.642837 21.507169 L 154.77859 22.965027 C 154.686649 23.1698 154.530349 23.31039 154.515026 23.594626 C 155.259749 23.823849 156.004473 24.03779 156.749196 24.349533 C 157.457144 24.563475 158.008791 24.866049 158.597214 25.147229 C 159.292903 25.413128 159.74035 25.682083 160.233768 25.951038 C 161.033656 26.41254 161.677244 26.870986 162.354545 27.332488 L 163.166692 28.023213 C 163.525262 27.500584 163.773504 27.087983 164.59178 26.458384 C 165.128104 26.094684 165.624586 25.718758 166.390763 25.437578 C 167.003704 25.293932 167.549222 25.098328 168.373628 25.101385 C 168.692357 25.116666 169.259328 25.119722 169.363528 25.361171 L 168.493151 26.064121 C 168.128451 26.360582 167.760687 26.797634 167.395987 27.201066 C 166.982251 27.836778 166.773851 28.267717 166.626745 28.63753 C 166.52561 29.028737 166.384633 29.416888 166.442863 29.808095 C 166.445928 30.235978 166.752398 30.78 166.963863 31.284291 L 168.054898 32.61684 L 169.360463 33.759898 C 169.13061 34.129711 169.164322 34.028853 168.566704 34.325315 C 168.106998 34.450623 167.650357 34.432285 167.190651 34.377272 L 166.053645 33.967727 C 165.618457 33.652927 165.103586 33.356466 164.840021 33.029441 L 163.755115 31.935284 L 163.142174 31.174264 C 162.906192 31.531851 162.621174 31.864989 162.287121 32.164507 C 161.818221 32.567939 161.318674 32.89802 160.822191 33.231157 L 159.651473 33.833249 L 158.355103 34.407835 C 157.374397 34.808211 156.381432 35.153573 155.385402 35.486711 L 154.104355 35.85958 C 154.079837 36.125479 154.21162 36.314969 154.41389 36.467785 L 155.317979 37.121834 L 156.047379 37.763658 C 155.805267 37.965374 155.46202 38.041782 155.14329 38.151809 C 154.855208 38.22516 154.47212 38.191541 154.104355 38.170147 C 153.525125 37.998994 153.050096 37.751433 152.682331 37.424408 L 152.087778 36.871217 L 151.530001 36.137704 C 151.165301 35.978776 150.800601 35.890143 150.435901 35.829017 L 148.140436 35.560062 C 147.05553 35.480598 145.958365 35.324726 144.830553 34.991589 C 143.9755 34.664564 143.157224 34.261132 142.403306 33.732391 C 141.7873 33.20365 141.205006 32.681022 140.772882 32.19507 Z M 139.758464 30.792225 " stroke="#c3ead8" stroke-width="0.05" stroke-opacity="1" stroke-miterlimit="4"/><path stroke-linecap="butt" transform="matrix(1.793826, 0, 0, 1.798757, -247.15403, -25.851266)" fill-opacity="1" fill="#28429d" fill-rule="nonzero" stroke-linejoin="miter" d="M 149.312984 30.272477 C 149.312984 30.735036 148.936258 31.108558 148.474605 31.108558 C 148.012952 31.108558 147.638404 30.735036 147.638404 30.272477 C 147.638404 29.809918 148.012952 29.434224 148.474605 29.434224 C 148.936258 29.434224 149.312984 29.809918 149.312984 30.272477 Z M 149.312984 30.272477 " stroke="#28429d" stroke-width="0.05" stroke-opacity="1" stroke-miterlimit="4"/><path stroke-linecap="butt" transform="matrix(1.274592, 0, 0, 1.278095, -166.857664, -6.882746)" fill-opacity="1" fill="#28429d" fill-rule="nonzero" stroke-linejoin="miter" d="M 148.195601 34.658452 L 148.882095 34.047191 L 149.724889 32.998878 L 150.325572 31.819144 C 150.497195 31.461556 150.647366 31.030617 150.702531 30.590509 L 150.806731 29.588041 C 150.800601 29.150989 150.794472 28.713938 150.705595 28.221873 C 150.622848 27.714526 150.497195 27.191898 150.288795 26.638706 L 149.700372 25.397846 L 148.992425 24.309802 L 148.784025 23.970552 L 149.286636 24.407603 L 150.104913 25.2542 L 150.491066 25.773772 L 151.045778 26.770127 L 151.33386 27.580048 L 151.517743 28.209647 L 151.621943 28.799514 L 151.649525 29.59721 L 151.597425 30.367399 L 151.413543 31.165095 L 151.199013 31.858876 L 150.797537 32.512925 L 150.457354 32.971371 L 149.997648 33.481774 L 149.268248 34.034966 L 148.535783 34.527031 Z M 148.195601 34.658452 " stroke="#28429d" stroke-width="0.05" stroke-opacity="1" stroke-miterlimit="4"/></svg>
